X:1
T:Working, Watching, Praying
T:Working, Watching, Praying
T:Powell George Fithian
T:Carrie Elizabeth Ellis Breck, 1900
T:Public Domain Courtesy of the Cyber Hymnal™
T:Public Domain Courtesy of the Cyber Hymnal™
C:Powell George Fithian
Z:Public Domain
Z:Courtesy of the Cyber Hymnal™
%%score ( 1 2 ) ( 3 4 )
L:1/8
Q:1/4=100
M:6/8
K:C
V:1 treble 
V:2 treble 
V:3 bass 
V:4 bass 
V:1
 [EG] | [Ee]2 [Ee] (dc)[FA] | [EG]2 [FA] [EG]2 E | (z2 [B,D]2) A x | (z2 [CE]2) [EG] x | %5
w: 1.~Go|forth! go forth * for|Je- sus now— Be|* work-|* ing!|
w: 2.~Go|forth! go forth * to|all the world! Oh,|* stay|* not!|
w: 3.~Go|forth! let heart * and|hand be strong! Be|* work-|* ing!|
 [Ee]2 [Ee] (dc)[FA] | [EG]2 [FA] [EG]2 [Ac] | ([GB-]3 [FB]2) [FA] | G3- G2 [DG] | %9
w: be watch- ing! * The|Lord Him- self will|teach * you|how * To|
w: de- lay not— * But|let Love’s ban- ner|be * un-|furled, * And|
w: be watch- ing! * Oh,|stay the might- y|power * of|wrong * Wher-|
 [EA]2 [EA] (AG)[EA] | [FB]2 [FB] [FB]2 [FG] | [Gc]2 [Gc] (cB)[Gc] | [Bd]2 [Bd] [Bd]2 [_Be] | %13
w: watch and pray. * ’Tis|not for thee thy|field to choose— * No|work He gives must|
w: grace be told. * Oh,|let re- deem- ing|love be sung— * A|song of joy on|
w: e’er ye may. * E-|quipped with love and|strength di- vine, * The|vic- to- ry is|
 [=Bf]3 [Bd]2 [_Be] | [=Bf]3 [Bd]2 [_Be] | (f3 d3) | [FB]3- !fermata![FB]2 ||"^Refrain" [FG] | %18
w: thou re- fuse—|Be work- ing!|be *|watch- *|ing!|
w: ev- ery tongue!|Be work- ing!|be *|watch- *|ing!|
w: sure- ly thine—|Be work- ing!|be *|watch- *|ing!|
 [Ee]2 [Ee] (dc)[FA] | [EG]2 [FA] [EG]2 E | (z2 [B,D]2) A x | (z2 [CE]2) [EG] x | %22
w: be pray- ing! * *||||
w: be pray- ing! * Go|forth to work— to|* watch|* and|
w: be pray- ing! * *||||
 [Ee]2 [Ee] (dc)[FA] | [EG]2 [FA] [EG]2 [Gc] | [Fd]2 [Fd] [Ec]2 [DB] | [Ec]3- [Ec]2 |] %26
w: ||||
w: pray! ’Tis Je- * sus|who calls thee— The|har- vest waits for|thee *|
w: ||||
V:2
 x | x3 F2 x | x6 | (G3 B,) x2 | (G3 C) x2 | x3 F2 x | x6 | x6 | G3- G2 x | x3 E2 x | x6 | %11
 x3 G2 x | x6 | x6 | x6 | =B6 | x5 || x | x3 F2 x | x6 | (G3 B,) x2 | (G3 C) x2 | x3 F2 x | x6 | %24
 x6 | x5 |] %26
V:3
 [C,G,] | [C,G,]2 [C,^G,] [C,A,]2 [C,B,] | [C,C]2 [C,C] [C,C]2 z | z2 [G,,D,] [G,,G,]2 z | %4
 z2 [C,E,] [C,G,]2 [C,G,] | [C,G,]2 [C,^G,] [C,A,]2 [C,B,] | [C,C]2 [C,C] [C,C]2 [A,,E] | %7
 [D,D]3- [D,D]2 [D,C] | [G,B,]3- [G,B,]2 [G,B,] | [G,C]2 [G,C] [G,C]2 [G,C] | %10
 [G,D]2 [G,D] [G,D]2 [G,B,] | [G,E]2 [G,E] (ED)[G,E] | [G,F]2 [G,F] [G,F]2 [G,^C] | %13
 [G,D]3 [G,F]2 [G,^C] | [G,D]3 [G,F]2 [G,^C] | (D3 F3) | [G,D]3- [G,D]2 || [G,B,] | %18
 [C,G,]2 [C,^G,] [C,A,]2 [C,B,] | [C,C]2 [C,C] [C,C]2 z | z2 [G,,D,] [G,,G,]2 z | %21
 z2 [C,E,] [C,G,]2 [C,G,] | [C,G,]2 [C,^G,] [C,A,]2 [C,B,] | [C,C]2 [C,C] [C,C]2 [E,G,] | %24
 [F,A,]2 [D,A,] G,2 [G,,G,] | [C,G,]3- [C,G,]2 |] %26
V:4
 x | x6 | x6 | x6 | x6 | x6 | x6 | x6 | x6 | x6 | x6 | x3 G,2 x | x6 | x6 | x6 | G,6 | x5 || x | %18
 x6 | x6 | x6 | x6 | x6 | x6 | x3 G,2 x | x5 |] %26

